static/assets/images/exchanges/balancer.svg

<svg width="308" height="256" viewBox="0 0 308 256" fill="none" xmlns="http://www.w3.org/2000/svg">
<path d="M225.961 156.378C274.305 165.299 307.187 182.861 307.187 203.072C307.187 232.32 238.415 256 153.593 256C68.7714 256 0 232.307 0 203.072C0 182.861 32.8946 165.299 81.2253 156.378C102.229 161.83 127.035 164.966 153.593 164.966C180.152 164.966 204.958 161.83 225.961 156.39V156.378ZM207.453 70.656C248.514 77.4912 276.801 91.8656 276.801 108.518C276.801 131.75 221.635 150.592 153.593 150.592C85.5515 150.592 30.3859 131.75 30.3859 108.518C30.3859 91.8784 58.6727 77.4912 99.7333 70.656C115.515 74.6624 133.921 76.9536 153.593 76.9536C173.266 76.9536 191.672 74.6496 207.453 70.656ZM154.157 0C205.111 0 246.428 14.2592 246.428 31.8592C246.428 49.4464 205.111 63.7056 154.157 63.7056C103.202 63.7056 61.8853 49.4464 61.8853 31.8592C61.8853 14.2592 103.202 0 154.157 0Z" fill="#DFD7CE"/>
</svg>

<svg xmlns="http://www.w3.org/2000/svg" fill="none" viewBox="0 0 308 256"><path fill="#DFD7CE" d="M225.961 156.378c48.344 8.921 81.226 26.483 81.226 46.694 0 29.248-68.772 52.928-153.594 52.928S0 232.307 0 203.072c0-20.211 32.895-37.773 81.225-46.694 21.004 5.452 45.81 8.588 72.368 8.588 26.559 0 51.365-3.136 72.368-8.576zm-18.508-85.722c41.061 6.835 69.348 21.21 69.348 37.862 0 23.232-55.166 42.074-123.208 42.074-68.041 0-123.207-18.842-123.207-42.074 0-16.64 28.287-31.027 69.347-37.862 15.782 4.006 34.188 6.298 53.86 6.298 19.673 0 38.079-2.304 53.86-6.298M154.157 0c50.954 0 92.271 14.26 92.271 31.86 0 17.586-41.317 31.846-92.271 31.846s-92.272-14.26-92.272-31.847C61.885 14.26 103.202 0 154.157 0"/></svg>
